X:1
T:Rejoice, the Lord Is King
T:Text: Charles Wesley, 1744, alt. Tune: John Darwall, 1770
T:66 66 88 DARWALL'S 148th www.hymnary.org/text/rejoice_the_lord_is_king_your_lord_and_k
T:Rejoice, the Lord Is King
T:This hymn is in the public domain. You may freely use this score for personal and congregational worship. If you reproduce the score, please credit Hymnary.org as the source. 
T:This hymn is in the public domain. You may freely use this score for personal and congregational worship. If you reproduce the score, please credit Hymnary.org as the source. 
Z:This hymn is in the public domain. You may freely use this score for personal and congregational worship. If you reproduce the score, please credit Hymnary.org as the source.
%%score ( 1 2 ) ( 3 4 )
L:1/8
M:4/4
K:C
V:1 treble nm="SOPRANO ALTO" snm="S. A."
V:2 treble 
V:3 bass nm="TENOR BASS" snm="T. B."
V:4 bass 
V:1
"^1""^2""^3""^4" C2 | E2 C2 G2 E2 | c6 B2 | A2 G2 F2 E2 | D6 D2 | E2 C2 A2 G2 | ^F2 D2 d2 c2 | %7
w: Re-|joice, the Lord is|King! Your|Lord and King a-|dore. Re-|joice, give thanks and|sing and tri- umph|
w: His|king- dom can- not|fail; he|rules o'er earth and|heaven; the|keys of death and|hell to Christ the|
w: He|sits at God's right|hand till|all his foes sub-|mit, bow|down at his com-|mand, and fall be-|
w: Re-|joice in glo- rious|hope; for|Christ, the Judge, shall|come to|ga- ther all his|saints to their e-|
 B4 A4 | G6 G2 | A4 B4 |1 c6 C2 | D2 E2 F2 G2 | A2 B2 c2 d2 | c4 B4 | c6 x2 |] %15
w: ev- er-|more. Lift|up your|heart, lift|up your voice. Re-|joice, a- gain I|say, re-|joice!|
w: Lord are|given. Lift|up your|heart, lift|up your voice. Re-|joice, a- gain I|say, re-|joice!|
w: neath his|feet. Lift|up your|heart, lift|up your voice. Re-|joice, a- gain I|say, re-|joice!|
w: ter- nal|home. Lift|up your|heart, the\_arch-|an- gel's voice; the|trump of God shall|sound, re-|joice!|
V:2
 C2 | C2 C2 D2 E2 | E6 E2 | F2 C2 B,2 C2 | B,6 B,2 | C2 C2 E2 D2 | D2 D2 D2 E2 | D4 D4 | D6 E2 | %9
 F4 F4 |1 E6 C2 | B,2 C2 C2 C2 | C2 F2 E2 D2 | E4 (D2 F2) | E6 x2 |] %15
V:3
 E,2 | G,2 E,2 G,2 G,2 | A,6 B,2 | C2 G,2 G,2 G,2 | G,6 G,2 | G,2 E,2 C2 B,2 | A,2 ^F,2 G,2 G,2 | %7
 G,4 (^F,2 C2) | B,6 C2 | C4 D4 |1 C6 G,2 | G,2 G,2 F,2 E,2 | F,2 F,2 G,2 A,2 | G,4 G,4 | G,6 x2 |] %15
V:4
 C,2 | C,2 C,2 B,,2 C,2 | A,6 G,2 | F,2 E,2 D,2 C,2 | G,,6 G,,2 | C,2 C,2 A,,2 B,,C, | %6
 D,2 C,2 B,,2 C,2 | D,4 D,4 | G,,6 C,2 | (F,2 E,2) D,4 |1 A,6 E,2 | D,2 C,2 A,,2 C,2 | %12
 F,2 D,2 E,2 F,2 | G,4 G,,4 | C,6 x2 |] %15

